pointercrate-demonlist-pages/static/images/flags/fr/occ.svg

<?xml version="1.0" encoding="UTF-8"?>
<!-- Generator: Gravit.io -->
<svg width="797.96pt" height="530.97pt" style="isolation:isolate" viewBox="0 0 797.96 530.97" xmlns="http://www.w3.org/2000/svg">
 <defs>
  <clipPath id="_clipPath_JZyFg5ObOTyVdDp8xrzlx3y82FNxIukZ">
   <rect width="797.96" height="530.97"/>
  </clipPath>
 </defs>
 <g clip-path="url(#_clipPath_JZyFg5ObOTyVdDp8xrzlx3y82FNxIukZ)">
  <rect width="797.96" height="530.97" fill="#d4001c"/>
  <g fill="#fddd00">
   <path d="m183.18 267 9.125 7.138c14.633 11.443 38.502 35.909 45.015 77.3l1.722 10.924 8.36-7.312c14.038-12.277 55.754-44.434 116.76-53.224-8.792 61.003-40.948 102.72-53.224 116.76l-7.312 8.361 10.924 1.721c41.392 6.515 65.857 30.383 77.301 45.015l7.137 9.126 7.138-9.126c11.442-14.632 35.907-38.5 77.299-45.015l10.924-1.721-7.312-8.361c-12.276-14.038-44.432-55.753-53.224-116.76 61.003 8.79 102.72 40.947 116.76 53.224l8.361 7.312 1.721-10.924c6.514-41.391 30.383-65.857 45.014-77.3l9.127-7.138-9.127-7.138c-14.631-11.443-38.5-35.908-45.014-77.299l-1.721-10.925-8.361 7.312c-14.037 12.277-55.753 44.434-116.76 53.225 8.792-61.003 40.948-102.72 53.224-116.76l7.312-8.362-10.924-1.72c-41.392-6.516-65.857-30.384-77.299-45.016l-7.138-9.126-7.137 9.126c-11.444 14.632-35.909 38.5-77.301 45.016l-10.924 1.72 7.312 8.362c12.276 14.037 44.432 55.753 53.224 116.76-61.003-8.791-102.72-40.948-116.76-53.225l-8.36-7.312-1.722 10.925c-6.513 41.391-30.382 65.856-45.015 77.299l-9.125 7.138zm35.125 0c27.829-25.798 34.256-54.425 34.256-54.425 40.625 34.242 103.99 41.96 135.66 43.666-1.707-31.679-9.424-95.039-43.665-135.67 0 0 28.625-6.425 54.425-34.255 25.799 27.83 54.424 34.255 54.424 34.255-34.241 40.627-41.958 103.99-43.665 135.67 31.678-1.706 95.039-9.424 135.66-43.666 0 0 6.425 28.627 34.255 54.425-27.83 25.799-34.255 54.425-34.255 54.425-40.626-34.242-103.99-41.96-135.66-43.666 1.707 31.679 9.424 95.039 43.665 135.67 0 0-28.625 6.425-54.424 34.255-25.8-27.83-54.425-34.255-54.425-34.255 34.241-40.627 41.958-103.99 43.665-135.67-31.678 1.706-95.039 9.424-135.66 43.666 0 0-6.427-28.626-34.256-54.425z"/>
   <circle cx="175.75" cy="267" r="18" vector-effect="non-scaling-stroke"/>
   <circle cx="236.55" cy="164.58" r="18" vector-effect="non-scaling-stroke"/>
   <circle cx="236.55" cy="369.42" r="18" vector-effect="non-scaling-stroke"/>
   <circle cx="296.56" cy="104.58" r="18" vector-effect="non-scaling-stroke"/>
   <circle cx="296.56" cy="429.43" r="18" vector-effect="non-scaling-stroke"/>
   <circle cx="398.98" cy="43.774" r="18" vector-effect="non-scaling-stroke"/>
   <circle cx="398.98" cy="490.23" r="18" vector-effect="non-scaling-stroke"/>
   <circle cx="501.4" cy="104.58" r="18" vector-effect="non-scaling-stroke"/>
   <circle cx="501.4" cy="429.43" r="18" vector-effect="non-scaling-stroke"/>
   <circle cx="561.4" cy="164.58" r="18" vector-effect="non-scaling-stroke"/>
   <circle cx="561.4" cy="369.42" r="18" vector-effect="non-scaling-stroke"/>
   <circle cx="622.21" cy="267" r="18" vector-effect="non-scaling-stroke"/>
  </g>
 </g>
</svg>

<?xml version="1.0" encoding="UTF-8" standalone="no"?><!-- Generator: Gravit.io --><svg xmlns="http://www.w3.org/2000/svg" xmlns:xlink="http://www.w3.org/1999/xlink" style="isolation:isolate" viewBox="0 0 797.96 530.973" width="797.96pt" height="530.973pt"><defs><clipPath id="_clipPath_JZyFg5ObOTyVdDp8xrzlx3y82FNxIukZ"><rect width="797.96" height="530.973"/></clipPath></defs><g clip-path="url(#_clipPath_JZyFg5ObOTyVdDp8xrzlx3y82FNxIukZ)"><rect x="0" y="0" width="797.96" height="530.973" transform="matrix(1,0,0,1,0,0)" fill="rgb(212,0,28)"/><g><g><path d=" M 183.175 267 L 192.3 274.138 C 206.933 285.581 230.802 310.047 237.315 351.438 L 239.037 362.362 L 247.397 355.05 C 261.435 342.773 303.151 310.616 364.154 301.826 C 355.362 362.829 323.206 404.544 310.93 418.582 L 303.618 426.943 L 314.542 428.664 C 355.934 435.179 380.399 459.047 391.843 473.679 L 398.98 482.805 L 406.118 473.679 C 417.56 459.047 442.025 435.179 483.417 428.664 L 494.341 426.943 L 487.029 418.582 C 474.753 404.544 442.597 362.829 433.805 301.826 C 494.808 310.616 536.524 342.773 550.561 355.05 L 558.922 362.362 L 560.643 351.438 C 567.157 310.047 591.026 285.581 605.657 274.138 L 614.784 267 L 605.657 259.862 C 591.026 248.419 567.157 223.954 560.643 182.563 L 558.922 171.638 L 550.561 178.95 C 536.524 191.227 494.808 223.384 433.805 232.175 C 442.597 171.172 474.753 129.456 487.029 115.419 L 494.341 107.057 L 483.417 105.337 C 442.025 98.821 417.56 74.953 406.118 60.321 L 398.98 51.195 L 391.843 60.321 C 380.399 74.953 355.934 98.821 314.542 105.337 L 303.618 107.057 L 310.93 115.419 C 323.206 129.456 355.362 171.172 364.154 232.175 C 303.151 223.384 261.435 191.227 247.397 178.95 L 239.037 171.638 L 237.315 182.563 C 230.802 223.954 206.933 248.419 192.3 259.862 L 183.175 267 Z  M 218.3 267 C 246.129 241.202 252.556 212.575 252.556 212.575 C 293.181 246.817 356.542 254.535 388.22 256.241 C 386.513 224.562 378.796 161.202 344.555 120.575 C 344.555 120.575 373.18 114.15 398.98 86.32 C 424.779 114.15 453.404 120.575 453.404 120.575 C 419.163 161.202 411.446 224.562 409.739 256.241 C 441.417 254.535 504.778 246.817 545.404 212.575 C 545.404 212.575 551.829 241.202 579.659 267 C 551.829 292.799 545.404 321.425 545.404 321.425 C 504.778 287.183 441.417 279.465 409.739 277.759 C 411.446 309.438 419.163 372.798 453.404 413.425 C 453.404 413.425 424.779 419.85 398.98 447.68 C 373.18 419.85 344.555 413.425 344.555 413.425 C 378.796 372.798 386.513 309.438 388.22 277.759 C 356.542 279.465 293.181 287.183 252.556 321.425 C 252.556 321.425 246.129 292.799 218.3 267 Z " fill="rgb(253,221,0)"/><circle vector-effect="non-scaling-stroke" cx="175.7545" cy="267" r="18" fill="rgb(253,221,0)"/><circle vector-effect="non-scaling-stroke" cx="236.5545" cy="164.576" r="18" fill="rgb(253,221,0)"/><circle vector-effect="non-scaling-stroke" cx="236.5545" cy="369.425" r="18" fill="rgb(253,221,0)"/><circle vector-effect="non-scaling-stroke" cx="296.55550000000005" cy="104.575" r="18" fill="rgb(253,221,0)"/><circle vector-effect="non-scaling-stroke" cx="296.55550000000005" cy="429.426" r="18" fill="rgb(253,221,0)"/><circle vector-effect="non-scaling-stroke" cx="398.97950000000003" cy="43.7744" r="18" fill="rgb(253,221,0)"/><circle vector-effect="non-scaling-stroke" cx="398.97950000000003" cy="490.226" r="18" fill="rgb(253,221,0)"/><circle vector-effect="non-scaling-stroke" cx="501.4035" cy="104.575" r="18" fill="rgb(253,221,0)"/><circle vector-effect="non-scaling-stroke" cx="501.4035" cy="429.426" r="18" fill="rgb(253,221,0)"/><circle vector-effect="non-scaling-stroke" cx="561.4045" cy="164.576" r="18" fill="rgb(253,221,0)"/><circle vector-effect="non-scaling-stroke" cx="561.4045" cy="369.425" r="18" fill="rgb(253,221,0)"/><circle vector-effect="non-scaling-stroke" cx="622.2055" cy="267" r="18" fill="rgb(253,221,0)"/></g></g></g></svg>
